X: 2
T:Great High Wind that Blew the Low Post Down
R:Reel
N:Transcribed by Bruce Thomson
M:4/4
K:Am
edcB A2 c2|e8|d2B2G2A2|BABc d4|edcB A2
c2|e8|a2g2eged|c2A2A4:|
|:a2a2a|b2a2e2a2|g4g3g|a2g2edc2|a4a2a|b2a2e2g2|a2g2eged|c2A2A4:|

